public/assets/icons/images.svg

<svg width="26" height="26" viewBox="0 0 26 26" fill="none" xmlns="http://www.w3.org/2000/svg">
<path d="M6.76905 19.913C5.92072 19.9114 5.09424 19.6488 4.40586 19.1621C3.71749 18.6754 3.20188 17.989 2.93157 17.1996L2.89365 17.0773C2.77229 16.7045 2.7091 16.3157 2.70621 15.9243V8.67245L0.0778338 17.2858C-0.0830311 17.8987 0.00755705 18.5491 0.330113 19.0971C0.652669 19.6451 1.18142 20.0469 1.80264 20.2161L18.5556 24.6206C18.7647 24.6738 18.9738 24.6993 19.1796 24.6993C20.2587 24.6993 21.2446 23.9963 21.5209 22.9603L22.4971 19.913H6.76905ZM9.74846 8.74478C10.9435 8.74478 11.9153 7.7907 11.9153 6.61751C11.9153 5.44432 10.9435 4.49023 9.74846 4.49023C8.55344 4.49023 7.58161 5.44432 7.58161 6.61751C7.58161 7.7907 8.55344 8.74478 9.74846 8.74478Z" fill="#F2F5F9"/>
<path d="M23.2919 1.29883H7.04059C6.3225 1.29967 5.63406 1.5801 5.1263 2.07859C4.61853 2.57708 4.33289 3.25294 4.33203 3.95792V15.6579C4.33203 17.1236 5.54763 18.317 7.04059 18.317H23.2919C24.7849 18.317 26.0005 17.1236 26.0005 15.6579V3.95792C26.0005 2.49223 24.7849 1.29883 23.2919 1.29883ZM7.04059 3.4261H23.2919C23.4356 3.4261 23.5734 3.48213 23.675 3.58187C23.7765 3.6816 23.8336 3.81687 23.8336 3.95792V11.5087L20.4111 7.58811C20.2301 7.38404 20.007 7.22015 19.7565 7.10736C19.5059 6.99457 19.2338 6.93546 18.9582 6.93397C18.6817 6.93538 18.4088 6.99618 18.1588 7.11213C17.9087 7.22807 17.6875 7.39634 17.5108 7.60513L13.4869 12.3468L12.176 11.063C11.8195 10.7136 11.3363 10.5173 10.8326 10.5173C10.3288 10.5173 9.84562 10.7136 9.48912 11.063L6.49887 13.9976V3.95792C6.49887 3.81687 6.55595 3.6816 6.65754 3.58187C6.75913 3.48213 6.89691 3.4261 7.04059 3.4261Z" fill="#F2F5F9"/>
</svg>

<svg xmlns="http://www.w3.org/2000/svg" width="26" height="26" fill="none"><path fill="#F2F5F9" d="M6.77 19.913a4.1 4.1 0 0 1-2.364-.75A4 4 0 0 1 2.932 17.2l-.038-.123a3.8 3.8 0 0 1-.188-1.153V8.672L.078 17.286c-.161.613-.07 1.263.252 1.811.323.548.851.95 1.473 1.12l16.753 4.404q.314.079.624.078c1.079 0 2.065-.703 2.34-1.739l.977-3.047zM9.747 8.745c1.196 0 2.167-.954 2.167-2.127 0-1.174-.971-2.128-2.167-2.128s-2.166.954-2.166 2.128c0 1.173.971 2.127 2.166 2.127"/><path fill="#F2F5F9" d="M23.292 1.299H7.04c-.719 0-1.407.281-1.915.78a2.64 2.64 0 0 0-.794 1.879v11.7c0 1.466 1.216 2.659 2.709 2.659h16.25c1.494 0 2.71-1.193 2.71-2.66v-11.7C26 2.493 24.784 1.3 23.29 1.3M7.04 3.426h16.25c.145 0 .282.056.384.156.101.1.159.235.159.376v7.55l-3.423-3.92a1.9 1.9 0 0 0-.655-.48 2 2 0 0 0-.798-.174c-.276.001-.55.062-.8.178a1.9 1.9 0 0 0-.647.493l-4.024 4.742-1.311-1.284a1.92 1.92 0 0 0-1.343-.546 1.92 1.92 0 0 0-1.344.546L6.5 13.998V3.958c0-.141.057-.276.159-.376.101-.1.239-.156.383-.156"/></svg>
